Newaita-dark/mimetypes/32/payment-card-jcb.svg

<svg height="32pt" viewBox="0 0 32 32" width="32pt" xmlns="http://www.w3.org/2000/svg" xmlns:xlink="http://www.w3.org/1999/xlink"><linearGradient id="a" gradientUnits="userSpaceOnUse" x1="15.87648" x2="15.87648" y1="26.0493047916" y2="6.2037031378"><stop offset="0" stop-color="#42a5f5"/><stop offset="1" stop-color="#64b5f6"/></linearGradient><linearGradient id="b" gradientUnits="userSpaceOnUse" x1="16.538045" x2="16.538045" y1="26.049371" y2="27.37241487502"><stop offset="0" stop-opacity=".27451"/><stop offset="1" stop-opacity="0"/></linearGradient><linearGradient id="c"><stop offset="0" stop-opacity=".313725"/><stop offset=".222222" stop-opacity=".27451"/><stop offset="1" stop-opacity="0"/></linearGradient><radialGradient id="d" cx="450.90894" cy="189.57936" gradientTransform="matrix(.00000017 -.0781325 -.140638 -.0000001 53.453693 61.61077)" gradientUnits="userSpaceOnUse" r="21.166656" xlink:href="#c"/><radialGradient id="e" cx="450.90894" cy="189.57936" gradientTransform="matrix(-.00000017 .0781325 .140638 .0000001 -21.700661 -9.512043)" gradientUnits="userSpaceOnUse" r="21.166656" xlink:href="#c"/><radialGradient id="f" cx="450.90894" cy="189.57936" gradientTransform="matrix(-.00000017 -.0781325 .140638 -.0000001 -21.700661 61.61077)" gradientUnits="userSpaceOnUse" r="21.166656" xlink:href="#c"/><radialGradient id="g" cx="450.90894" cy="189.57936" gradientTransform="matrix(.00000017 .0781325 -.140638 .0000001 53.453692 -9.512044)" gradientUnits="userSpaceOnUse" r="21.166656" xlink:href="#c"/><linearGradient id="h" gradientUnits="userSpaceOnUse" x1="15.876524" x2="15.876524" y1="30.68002175004" y2="1.57306087502"><stop offset="0" stop-color="#bdbdbd"/><stop offset="1" stop-color="#e0e0e0"/></linearGradient><linearGradient id="i" gradientUnits="userSpaceOnUse" x1="21.8302205" x2="21.8302205" y1="26.0493685" y2="6.2037135"><stop offset="0" stop-color="#66bb6a"/><stop offset="1" stop-color="#81c784"/></linearGradient><linearGradient id="j" gradientUnits="userSpaceOnUse" x1="15.876524" x2="15.876524" y1="26.0493685" y2="6.2037135"><stop offset="0" stop-color="#f44336"/><stop offset="1" stop-color="#ef5350"/></linearGradient><linearGradient id="k" gradientUnits="userSpaceOnUse" x1="10.25358862502" x2="9.9228275" y1="26.0493685" y2="6.2037135"><stop offset="0" stop-color="#5c6bc0"/><stop offset="1" stop-color="#7986cb"/></linearGradient><path d="m15.875 10.835938c-2.929688 0-5.289062 2.359374-5.289062 5.289062 0 2.933594 2.359374 5.292969 5.289062 5.292969 2.933594 0 5.292969-2.359375 5.292969-5.292969 0-2.929688-2.359375-5.289062-5.292969-5.289062zm-1.652344 1.679687v7.222656c-1.367187-.625-2.316406-2.003906-2.316406-3.613281 0-1.605469.949219-2.984375 2.316406-3.609375zm3.308594 0c1.367188.625 2.3125 2.003906 2.3125 3.609375 0 1.609375-.945312 2.988281-2.3125 3.613281zm0 0" fill="url(#a)"/><path d="m4.628906 26.050781h22.492188v1.320313h-22.492188zm0 0" fill="url(#b)"/><path d="m27.121094 26.050781h2.648437v-1.324219h-2.648437zm0 0" fill="url(#d)"/><path d="m4.628906 26.050781h-2.644531v1.320313h2.644531zm0 0" fill="url(#e)"/><path d="m4.628906 26.050781h-2.644531v-1.324219h2.644531zm0 0" fill="url(#f)"/><path d="m27.121094 26.050781h2.648437v1.320313h-2.648437zm0 0" fill="url(#g)"/><path d="m3.96875 6.203125h23.816406c.730469 0 1.320313.59375 1.320313 1.324219v17.199218c0 .730469-.589844 1.324219-1.320313 1.324219h-23.816406c-.730469 0-1.324219-.59375-1.324219-1.324219v-17.199218c0-.730469.59375-1.324219 1.324219-1.324219zm0 0" fill="url(#h)"/><path d="m3.96875 6.203125c-.734375 0-1.324219.589844-1.324219 1.324219v.332031c0-.734375.589844-1.324219 1.324219-1.324219h23.816406c.730469 0 1.320313.589844 1.320313 1.324219v-.332031c0-.734375-.589844-1.324219-1.320313-1.324219zm0 0" fill="#fff" fill-opacity=".588235"/><path d="m2.644531 24.40625v.320312c0 .734376.589844 1.324219 1.324219 1.324219h23.816406c.730469 0 1.320313-.589843 1.320313-1.324219v-.320312c0 .734375-.589844 1.324219-1.320313 1.324219h-23.816406c-.734375 0-1.324219-.589844-1.324219-1.324219zm0 0" fill-opacity=".235294"/><path d="m63.493937-115.759477h381.026113c11.686384 0 21.122983 9.499093 21.122983 21.185477v275.161223c0 11.686384-9.436599 21.185477-21.122983 21.185477h-381.026113c-11.686384 0-21.185477-9.499093-21.185477-21.185477v-275.161223c0-11.686384 9.499093-21.185477 21.185477-21.185477zm0 0" fill="none" stroke="#212121" stroke-linecap="round" stroke-linejoin="round" stroke-width="3" transform="matrix(.062506 0 0 .062506 0 13.438783)"/><path d="m21.335938 10.503906c-.917969 0-1.65625.738282-1.65625 1.652344v9.261719h3.308593c.914063 0 1.652344-.738281 1.652344-1.652344v-9.261719zm0 0" fill="url(#i)"/><path d="m15.050781 10.503906c-.917969 0-1.65625.738282-1.65625 1.652344v9.261719h3.308594c.917969 0 1.652344-.738281 1.652344-1.652344v-9.261719zm0 0" fill="url(#j)"/><path d="m8.765625 10.503906c-.917969 0-1.652344.738282-1.652344 1.652344v9.261719h3.304688c.917969 0 1.65625-.738281 1.65625-1.652344v-9.261719zm0 0" fill="url(#k)"/><g fill="none" stroke="#212121" stroke-linecap="round" stroke-linejoin="round" stroke-width="3" transform="matrix(.062506 0 0 .062506 0 13.438783)"><path d="m341.342403-46.953548c-14.686097 0-26.497469 11.811372-26.497469 26.434976v148.17335h52.932445c14.623604 0 26.434976-11.811372 26.434976-26.434975v-148.173351zm0 0"/><path d="m240.789506-46.953548c-14.686098 0-26.49747 11.811372-26.49747 26.434976v148.17335h52.932445c14.686098 0 26.434976-11.811372 26.434976-26.434975v-148.173351zm0 0"/><path d="m140.236608-46.953548c-14.686097 0-26.434976 11.811372-26.434976 26.434976v148.17335h52.869952c14.686097 0 26.497469-11.811372 26.497469-26.434975v-148.173351zm0 0"/></g></svg>

<?xml version="1.0" encoding="UTF-8"?>
<svg xmlns="http://www.w3.org/2000/svg" xmlns:xlink="http://www.w3.org/1999/xlink" width="32pt" height="32pt" viewBox="0 0 32 32" version="1.1">
<defs>
<linearGradient id="linear0" gradientUnits="userSpaceOnUse" x1="960" y1="1575.1182" x2="960" y2="375.1181" gradientTransform="matrix(0.016538,0,0,0.016538,0,0)">
<stop offset="0" style="stop-color:rgb(25.882353%,64.705882%,96.078431%);stop-opacity:1;"/>
<stop offset="1" style="stop-color:rgb(39.215686%,70.980392%,96.470588%);stop-opacity:1;"/>
</linearGradient>
<linearGradient id="linear1" gradientUnits="userSpaceOnUse" x1="254" y1="233.5" x2="254" y2="254.66667" gradientTransform="matrix(0.062506,0,0,0.062506,0.661521,11.45422)">
<stop offset="0" style="stop-color:rgb(0%,0%,0%);stop-opacity:0.27451;"/>
<stop offset="1" style="stop-color:rgb(0%,0%,0%);stop-opacity:0;"/>
</linearGradient>
<radialGradient id="radial0" gradientUnits="userSpaceOnUse" cx="450.90894" cy="189.57936" fx="450.90894" fy="189.57936" r="21.166656" gradientTransform="matrix(0.00000017417,-0.0781325,-0.140638,-0.000000101539,53.453693,61.61077)">
<stop offset="0" style="stop-color:rgb(0%,0%,0%);stop-opacity:0.313725;"/>
<stop offset="0.222222" style="stop-color:rgb(0%,0%,0%);stop-opacity:0.27451;"/>
<stop offset="1" style="stop-color:rgb(0%,0%,0%);stop-opacity:0;"/>
</radialGradient>
<radialGradient id="radial1" gradientUnits="userSpaceOnUse" cx="450.90894" cy="189.57936" fx="450.90894" fy="189.57936" r="21.166656" gradientTransform="matrix(-0.00000017417,0.0781325,0.140638,0.000000101539,-21.700661,-9.512043)">
<stop offset="0" style="stop-color:rgb(0%,0%,0%);stop-opacity:0.313725;"/>
<stop offset="0.222222" style="stop-color:rgb(0%,0%,0%);stop-opacity:0.27451;"/>
<stop offset="1" style="stop-color:rgb(0%,0%,0%);stop-opacity:0;"/>
</radialGradient>
<radialGradient id="radial2" gradientUnits="userSpaceOnUse" cx="450.90894" cy="189.57936" fx="450.90894" fy="189.57936" r="21.166656" gradientTransform="matrix(-0.00000017417,-0.0781325,0.140638,-0.000000101539,-21.700661,61.61077)">
<stop offset="0" style="stop-color:rgb(0%,0%,0%);stop-opacity:0.313725;"/>
<stop offset="0.222222" style="stop-color:rgb(0%,0%,0%);stop-opacity:0.27451;"/>
<stop offset="1" style="stop-color:rgb(0%,0%,0%);stop-opacity:0;"/>
</radialGradient>
<radialGradient id="radial3" gradientUnits="userSpaceOnUse" cx="450.90894" cy="189.57936" fx="450.90894" fy="189.57936" r="21.166656" gradientTransform="matrix(0.00000017417,0.0781325,-0.140638,0.000000101539,53.453692,-9.512044)">
<stop offset="0" style="stop-color:rgb(0%,0%,0%);stop-opacity:0.313725;"/>
<stop offset="0.222222" style="stop-color:rgb(0%,0%,0%);stop-opacity:0.27451;"/>
<stop offset="1" style="stop-color:rgb(0%,0%,0%);stop-opacity:0;"/>
</radialGradient>
<linearGradient id="linear2" gradientUnits="userSpaceOnUse" x1="254" y1="275.83334" x2="254" y2="-189.83333" gradientTransform="matrix(0.062506,0,0,0.062506,0,13.438783)">
<stop offset="0" style="stop-color:rgb(74.117647%,74.117647%,74.117647%);stop-opacity:1;"/>
<stop offset="1" style="stop-color:rgb(87.843137%,87.843137%,87.843137%);stop-opacity:1;"/>
</linearGradient>
<linearGradient id="linear3" gradientUnits="userSpaceOnUse" x1="349.25" y1="201.75" x2="349.25" y2="-115.75" gradientTransform="matrix(0.062506,0,0,0.062506,0,13.438783)">
<stop offset="0" style="stop-color:rgb(40%,73.333333%,41.568627%);stop-opacity:1;"/>
<stop offset="1" style="stop-color:rgb(50.588235%,78.039216%,51.764706%);stop-opacity:1;"/>
</linearGradient>
<linearGradient id="linear4" gradientUnits="userSpaceOnUse" x1="254" y1="201.75" x2="254" y2="-115.75" gradientTransform="matrix(0.062506,0,0,0.062506,0,13.438783)">
<stop offset="0" style="stop-color:rgb(95.686275%,26.27451%,21.176471%);stop-opacity:1;"/>
<stop offset="1" style="stop-color:rgb(93.72549%,32.54902%,31.372549%);stop-opacity:1;"/>
</linearGradient>
<linearGradient id="linear5" gradientUnits="userSpaceOnUse" x1="164.04167" y1="201.75" x2="158.75" y2="-115.75" gradientTransform="matrix(0.062506,0,0,0.062506,0,13.438783)">
<stop offset="0" style="stop-color:rgb(36.078431%,41.960784%,75.294118%);stop-opacity:1;"/>
<stop offset="1" style="stop-color:rgb(47.45098%,52.54902%,79.607843%);stop-opacity:1;"/>
</linearGradient>
</defs>
<g id="surface1">
<path style=" stroke:none;fill-rule:nonzero;fill:url(#linear0);" d="M 15.875 10.835938 C 12.945312 10.835938 10.585938 13.195312 10.585938 16.125 C 10.585938 19.058594 12.945312 21.417969 15.875 21.417969 C 18.808594 21.417969 21.167969 19.058594 21.167969 16.125 C 21.167969 13.195312 18.808594 10.835938 15.875 10.835938 Z M 14.222656 12.515625 L 14.222656 19.738281 C 12.855469 19.113281 11.90625 17.734375 11.90625 16.125 C 11.90625 14.519531 12.855469 13.140625 14.222656 12.515625 Z M 17.53125 12.515625 C 18.898438 13.140625 19.84375 14.519531 19.84375 16.125 C 19.84375 17.734375 18.898438 19.113281 17.53125 19.738281 Z M 17.53125 12.515625 "/>
<path style=" stroke:none;fill-rule:nonzero;fill:url(#linear1);" d="M 4.628906 26.050781 L 27.121094 26.050781 L 27.121094 27.371094 L 4.628906 27.371094 Z M 4.628906 26.050781 "/>
<path style=" stroke:none;fill-rule:nonzero;fill:url(#radial0);" d="M 27.121094 26.050781 L 29.769531 26.050781 L 29.769531 24.726562 L 27.121094 24.726562 Z M 27.121094 26.050781 "/>
<path style=" stroke:none;fill-rule:nonzero;fill:url(#radial1);" d="M 4.628906 26.050781 L 1.984375 26.050781 L 1.984375 27.371094 L 4.628906 27.371094 Z M 4.628906 26.050781 "/>
<path style=" stroke:none;fill-rule:nonzero;fill:url(#radial2);" d="M 4.628906 26.050781 L 1.984375 26.050781 L 1.984375 24.726562 L 4.628906 24.726562 Z M 4.628906 26.050781 "/>
<path style=" stroke:none;fill-rule:nonzero;fill:url(#radial3);" d="M 27.121094 26.050781 L 29.769531 26.050781 L 29.769531 27.371094 L 27.121094 27.371094 Z M 27.121094 26.050781 "/>
<path style=" stroke:none;fill-rule:nonzero;fill:url(#linear2);" d="M 3.96875 6.203125 L 27.785156 6.203125 C 28.515625 6.203125 29.105469 6.796875 29.105469 7.527344 L 29.105469 24.726562 C 29.105469 25.457031 28.515625 26.050781 27.785156 26.050781 L 3.96875 26.050781 C 3.238281 26.050781 2.644531 25.457031 2.644531 24.726562 L 2.644531 7.527344 C 2.644531 6.796875 3.238281 6.203125 3.96875 6.203125 Z M 3.96875 6.203125 "/>
<path style=" stroke:none;fill-rule:nonzero;fill:rgb(100%,100%,100%);fill-opacity:0.588235;" d="M 3.96875 6.203125 C 3.234375 6.203125 2.644531 6.792969 2.644531 7.527344 L 2.644531 7.859375 C 2.644531 7.125 3.234375 6.535156 3.96875 6.535156 L 27.785156 6.535156 C 28.515625 6.535156 29.105469 7.125 29.105469 7.859375 L 29.105469 7.527344 C 29.105469 6.792969 28.515625 6.203125 27.785156 6.203125 Z M 3.96875 6.203125 "/>
<path style=" stroke:none;fill-rule:nonzero;fill:rgb(0%,0%,0%);fill-opacity:0.235294;" d="M 2.644531 24.40625 L 2.644531 24.726562 C 2.644531 25.460938 3.234375 26.050781 3.96875 26.050781 L 27.785156 26.050781 C 28.515625 26.050781 29.105469 25.460938 29.105469 24.726562 L 29.105469 24.40625 C 29.105469 25.140625 28.515625 25.730469 27.785156 25.730469 L 3.96875 25.730469 C 3.234375 25.730469 2.644531 25.140625 2.644531 24.40625 Z M 2.644531 24.40625 "/>
<path style="fill:none;stroke-width:3;stroke-linecap:round;stroke-linejoin:round;stroke:rgb(12.941176%,12.941176%,12.941176%);stroke-opacity:1;stroke-miterlimit:4;" d="M 63.493937 -115.759477 L 444.52005 -115.759477 C 456.206434 -115.759477 465.643033 -106.260384 465.643033 -94.574 L 465.643033 180.587223 C 465.643033 192.273607 456.206434 201.7727 444.52005 201.7727 L 63.493937 201.7727 C 51.807553 201.7727 42.30846 192.273607 42.30846 180.587223 L 42.30846 -94.574 C 42.30846 -106.260384 51.807553 -115.759477 63.493937 -115.759477 Z M 63.493937 -115.759477 " transform="matrix(0.062506,0,0,0.062506,0,13.438783)"/>
<path style=" stroke:none;fill-rule:nonzero;fill:url(#linear3);" d="M 21.335938 10.503906 C 20.417969 10.503906 19.679688 11.242188 19.679688 12.15625 L 19.679688 21.417969 L 22.988281 21.417969 C 23.902344 21.417969 24.640625 20.679688 24.640625 19.765625 L 24.640625 10.503906 Z M 21.335938 10.503906 "/>
<path style=" stroke:none;fill-rule:nonzero;fill:url(#linear4);" d="M 15.050781 10.503906 C 14.132812 10.503906 13.394531 11.242188 13.394531 12.15625 L 13.394531 21.417969 L 16.703125 21.417969 C 17.621094 21.417969 18.355469 20.679688 18.355469 19.765625 L 18.355469 10.503906 Z M 15.050781 10.503906 "/>
<path style=" stroke:none;fill-rule:nonzero;fill:url(#linear5);" d="M 8.765625 10.503906 C 7.847656 10.503906 7.113281 11.242188 7.113281 12.15625 L 7.113281 21.417969 L 10.417969 21.417969 C 11.335938 21.417969 12.074219 20.679688 12.074219 19.765625 L 12.074219 10.503906 Z M 8.765625 10.503906 "/>
<path style="fill:none;stroke-width:3;stroke-linecap:round;stroke-linejoin:round;stroke:rgb(12.941176%,12.941176%,12.941176%);stroke-opacity:1;stroke-miterlimit:4;" d="M 341.342403 -46.953548 C 326.656306 -46.953548 314.844934 -35.142176 314.844934 -20.518572 L 314.844934 127.654778 L 367.777379 127.654778 C 382.400983 127.654778 394.212355 115.843406 394.212355 101.219803 L 394.212355 -46.953548 Z M 341.342403 -46.953548 " transform="matrix(0.062506,0,0,0.062506,0,13.438783)"/>
<path style="fill:none;stroke-width:3;stroke-linecap:round;stroke-linejoin:round;stroke:rgb(12.941176%,12.941176%,12.941176%);stroke-opacity:1;stroke-miterlimit:4;" d="M 240.789506 -46.953548 C 226.103408 -46.953548 214.292036 -35.142176 214.292036 -20.518572 L 214.292036 127.654778 L 267.224481 127.654778 C 281.910579 127.654778 293.659457 115.843406 293.659457 101.219803 L 293.659457 -46.953548 Z M 240.789506 -46.953548 " transform="matrix(0.062506,0,0,0.062506,0,13.438783)"/>
<path style="fill:none;stroke-width:3;stroke-linecap:round;stroke-linejoin:round;stroke:rgb(12.941176%,12.941176%,12.941176%);stroke-opacity:1;stroke-miterlimit:4;" d="M 140.236608 -46.953548 C 125.550511 -46.953548 113.801632 -35.142176 113.801632 -20.518572 L 113.801632 127.654778 L 166.671584 127.654778 C 181.357681 127.654778 193.169053 115.843406 193.169053 101.219803 L 193.169053 -46.953548 Z M 140.236608 -46.953548 " transform="matrix(0.062506,0,0,0.062506,0,13.438783)"/>
</g>
</svg>
